source/img/user.svg

<svg width="24" height="24" viewBox="0 0 24 24" fill="none" xmlns="http://www.w3.org/2000/svg">
<path d="M7.5 6.73684C7.5 9.34842 9.519 11.4737 12 11.4737C14.481 11.4737 16.5 9.34842 16.5 6.73684C16.5 4.12526 14.481 2 12 2C9.519 2 7.5 4.12526 7.5 6.73684ZM20 22H21V20.9474C21 16.8853 17.859 13.5789 14 13.5789H10C6.14 13.5789 3 16.8853 3 20.9474V22H20Z" fill="#192144"/>
</svg>

<svg width="24" height="24" fill="none" xmlns="http://www.w3.org/2000/svg"><path d="M7.5 6.737c0 2.611 2.019 4.737 4.5 4.737s4.5-2.126 4.5-4.737C16.5 4.125 14.481 2 12 2S7.5 4.125 7.5 6.737zM20 22h1v-1.053c0-4.062-3.141-7.368-7-7.368h-4c-3.86 0-7 3.306-7 7.368V22h17z" fill="#192144"/></svg>
